X: 683
T: Salt Fish and Dumplins
M:4/4
L:1/8
S: 8: MCJLSH3 http://www.cpartington.plus.com/links/Walsh.abc
Z: Pete Stewart 2004
B: Walsh "Third Book of the most Celebrated jiggs, Lancashire hornpipes, ..."
K:A
cB | A3B ABcd | fgaf ecBA | d3f ecBA | G2B4Bc | d3e fgaf | ecBAG3B | Ac Bd ce Bd | c2A4 ||
af | ecAc e3f | efde cdec | dcde fgab | g2e4dc | dcde fgac | dcBA GBeB | ceac Bcdec2A4 ||

%%sep 1 1 500
%%sep 1 1 500
